src/main/resources/icons/AllIcons/providers/bigQuery.svg

<svg width="16" height="16" viewBox="0 0 16 16" fill="none" xmlns="http://www.w3.org/2000/svg">
<path d="M3.89729 2.03747L0.737569 7.45414C0.540805 7.79145 0.540805 8.20855 0.737569 8.54586L3.89729 13.9625C4.09144 14.2953 4.44775 14.5 4.83305 14.5H11.1719C11.5572 14.5 11.9135 14.2953 12.1077 13.9625L15.2674 8.54586C15.4642 8.20855 15.4642 7.79145 15.2674 7.45414L12.1077 2.03747C11.9135 1.70465 11.5572 1.5 11.1719 1.5H4.83305C4.44775 1.5 4.09144 1.70465 3.89729 2.03747Z" fill="#4485F9"/>
<path d="M14.2031 10.3704L9.91756 6.08494C8.85989 5.02727 7.14507 5.02727 6.0874 6.08494C5.02973 7.14261 5.02973 8.85743 6.0874 9.9151L10.6723 14.5H11.1719C11.5572 14.5 11.9135 14.2954 12.1077 13.9625L14.2031 10.3704Z" fill="#417BDC"/>
<path d="M8.32748 9.59251C8.22247 9.61383 8.11379 9.62502 8.00249 9.62502C7.89118 9.62502 7.78249 9.61383 7.67748 9.59251V7.18329H8.32748V9.59251Z" fill="#FFFEFF"/>
<path d="M7.24109 9.43597V7.86037H6.59109V8.80592C6.7436 9.07244 6.96943 9.29162 7.24109 9.43597Z" fill="#FFFEFF"/>
<path d="M9.41081 8.81127C9.25777 9.07638 9.03202 9.29424 8.76081 9.4376V8.1439H9.41081V8.81127Z" fill="#FFFEFF"/>
<path fill-rule="evenodd" clip-rule="evenodd" d="M8.00248 10.0584C9.13927 10.0584 10.0608 9.13681 10.0608 8.00002C10.0608 6.86323 9.13927 5.94169 8.00248 5.94169C6.86569 5.94169 5.94415 6.86323 5.94415 8.00002C5.94415 9.13681 6.86569 10.0584 8.00248 10.0584ZM8.00248 10.7084C9.49825 10.7084 10.7108 9.49579 10.7108 8.00002C10.7108 6.50425 9.49825 5.29169 8.00248 5.29169C6.50671 5.29169 5.29415 6.50425 5.29415 8.00002C5.29415 9.49579 6.50671 10.7084 8.00248 10.7084Z" fill="#FFFEFF"/>
<path fill-rule="evenodd" clip-rule="evenodd" d="M10.9431 11.0939C10.8585 11.1785 10.7213 11.1785 10.6367 11.0939L9.39767 9.85483L9.85729 9.39521L11.0963 10.6343C11.1809 10.7189 11.181 10.8561 11.0963 10.9407L10.9431 11.0939Z" fill="#FFFEFF"/>
</svg>

<svg width="16" height="16" viewBox="0 0 16 16" fill="none" xmlns="http://www.w3.org/2000/svg"><rect id="frame" width="16" height="16" fill="none"/><path d="M3.897 2.037L.737 7.454a1.083 1.083 0 0 0 0 1.092l3.16 5.417c.194.332.55.537.936.537h6.339c.385 0 .742-.205.936-.537l3.16-5.417a1.083 1.083 0 0 0 0-1.092l-3.16-5.417a1.083 1.083 0 0 0-.936-.537H4.833c-.385 0-.742.205-.936.537z" fill="#4485F9"/><path d="M14.203 10.37L9.918 6.085a2.708 2.708 0 1 0-3.83 3.83l4.584 4.585h.5c.385 0 .742-.205.936-.537l2.095-3.593z" fill="#417BDC"/><path d="M8.327 9.593a1.632 1.632 0 0 1-.65 0v-2.41h.65v2.41z" fill="#FFFEFF"/><path d="M7.241 9.436V7.86h-.65v.946c.153.266.378.486.65.63z" fill="#FFFEFF"/><path d="M9.41 8.811a1.633 1.633 0 0 1-.65.627V8.144h.65v.667z" fill="#FFFEFF"/><path fill-rule="evenodd" clip-rule="evenodd" d="M8.002 10.058a2.058 2.058 0 1 0 0-4.116 2.058 2.058 0 0 0 0 4.116zm0 .65a2.708 2.708 0 1 0 0-5.416 2.708 2.708 0 0 0 0 5.416z" fill="#FFFEFF"/><path fill-rule="evenodd" clip-rule="evenodd" d="M10.943 11.094a.217.217 0 0 1-.306 0l-1.24-1.24.46-.459 1.24 1.24a.217.217 0 0 1 0 .306l-.154.153z" fill="#FFFEFF"/></svg>
